assets/svgs/i-arrow-right.svg

<svg fill="none" height="24" viewBox="0 0 12 24" width="12" xmlns="http://www.w3.org/2000/svg"><path d="m11.4295 11.9966c.0005-.4646-.1569-.9094-.436-1.2314l-8.55779-10.269387c-.37216-.4427089-.91673-.604705-1.41812-.4218581-.501386.1828471-.878756.6810541-.982715 1.2973951-.1039586.61634.082256 1.25143.484927 1.65386l7.469498 8.97139-7.571561 9.0819c-.3602783.4323-.500983 1.0624-.369112 1.653s.516283 1.0519 1.008433 1.2101c.49215.1583 1.01726-.0106 1.37754-.4429l8.5578-10.2694c.2797-.3221.4376-.7674.4371-1.2327z" fill="#727c8e"/></svg>

<svg xmlns="http://www.w3.org/2000/svg" xmlns:xlink="http://www.w3.org/1999/xlink" fill="none" version="1.1" width="11.429443359375" height="24" viewBox="0 0 11.429443359375 24"><g><g><path d="M11.4295,11.9966C11.4295,11.9966,11.4295,11.9966,11.4295,11.9966C11.43,11.532,11.2726,11.0872,10.9935,10.7652C10.9935,10.7652,10.9935,10.7652,10.9935,10.7652C10.9935,10.7652,2.43571,0.495813,2.43571,0.495813C2.43571,0.495813,2.43571,0.495813,2.43571,0.495813C2.06355,0.0531041,1.51898,-0.108892,1.01759,0.0739549C0.516204,0.256802,0.138834,0.755009,0.034875,1.37135C-0.0690836,1.98769,0.117131,2.62278,0.519802,3.02521C0.519802,3.02521,7.9893,11.9966,7.9893,11.9966C7.9893,11.9966,0.417739,21.0785,0.417739,21.0785C0.417739,21.0785,0.417739,21.0785,0.417739,21.0785C0.0574607,21.5108,-0.083244,22.1409,0.048627,22.7315C0.180498,23.3221,0.56491,23.7834,1.05706,23.9416C1.54921,24.0999,2.07432,23.931,2.4346,23.4987C2.4346,23.4987,2.4346,23.4987,2.4346,23.4987C2.4346,23.4987,10.9924,13.2293,10.9924,13.2293C10.9924,13.2293,10.9924,13.2293,10.9924,13.2293C11.2721,12.9072,11.43,12.4619,11.4295,11.9966C11.4295,11.9966,11.4295,11.9966,11.4295,11.9966Z" fill="#727C8E" fill-opacity="1"/></g></g></svg>
